!!!OTL: ESKANN JA NICHT IMMER SO BLEIBEN
!!!ARE: Europa, Mitteleuropa, Deutschland, Hessen, Nassau
!!!SCT: E0353C
!!!YEM: Copyright 1995, estate of Helmut Schaffrath.
**kern
*ICvox
*Ivox
*M4/4
*k[b-]
*F:
{8f
8g
=1
4a
8a
8a
8a
8cc
8b-
8a
=2
8cc
8g
4g
4r}
{8g
8a
=3
4b-
8b-
8b-
4dd
8cc
8b-
=4
2cc
4r}
{4f
=5
4dd
8dd
8dd
4ff
8ee
8dd
=6
8dd
8cc
4cc
4r}
{8cc
8ff
=7
8ff
8cc
8a
8dd
4cc
8.b-
16g
=8
2f
4r}
{4f
=9
4dd
8dd
8dd
4ff
8ee
8dd
=10
8dd
8cc
4cc
4r}
{8cc
8ff
=11
8ff
8cc
8a
8dd
4cc
8.b-
16g
=12
2f
4r}
==
!!!AGN: historisches Lied, Krieg, Soldaten (1813 und 1870)
!!!ONB: ESAC (Essen Associative Code) Database: ERK1
!!!AMT: simple quadruple
!!!AIN: vox
!!!EED: Helmut Schaffrath
!!!EEV: 1.0
*-
